X:32
T:Pere of Ryalt, The
R:slide
Z:id:hn-slide-53
M:6/8
K:D
F2A 


*****************************


19400 4 0.95012015 

<stargar amboumbains milt: also peate.
I:Claney furt also 222
D:Maire Nollains G in KyG
Z:id: Haage whe i


*****************************


19500 4 0.5794693 

<startonshe
Z:id:hn-slide-55
M:6/8
K:G
DGB BAG|FGA B2A|GAB d2B|A3 ABc|dAA A2G|E2A GED|g3 fed|cBA BcA|FEF 


*****************************


19600 4 0.84241223 

<startoth:  wame ress form
Z:id:hn-slide-65
M:6/8
K:G
dBd GBd|edB c2e|g2g g2g|A2a a3|baf f2g|f2d d2f|f2e 


*****************************


19700 4 0.8381419 

<start>
